assets/svg/keyboard_mouse_hotkeys.svg

<svg width="51" height="50" viewBox="0 0 51 50" fill="none" xmlns="http://www.w3.org/2000/svg">
<path fill-rule="evenodd" clip-rule="evenodd" d="M4.70157 41.9922C4.70157 41.8945 4.60115 41.8945 4.60115 41.7969C4.50072 41.5039 4.60115 41.1133 4.90242 41.0156L12.7354 37.8906C13.0367 37.6953 13.3379 37.8906 13.5388 38.1836V38.3789C14.9447 38.9648 15.9489 40.1367 16.5515 41.5039C17.2544 42.9688 17.2544 44.6289 16.5515 46.1914C15.9489 47.6563 14.7438 48.8281 13.1371 49.5117C12.4341 49.8047 11.5303 50 10.7269 50C8.31679 50 5.90664 48.5352 4.90242 46.1914C4.29988 44.8242 4.29988 43.3594 4.70157 41.9922Z" fill="#E6E6E6"/>
<path fill-rule="evenodd" clip-rule="evenodd" d="M36.4352 11.8164H36.3347C36.0335 11.7188 35.8326 11.4258 35.8326 11.1328C35.9331 10.6445 36.9373 6.73828 39.0462 5.85938C39.6487 5.56641 40.3517 5.66406 41.0546 6.05469C42.3601 6.83594 44.9711 8.30078 45.9753 8.00781C46.1762 8.00781 46.2766 7.91016 46.377 7.71484C46.5779 7.51953 46.8791 7.42188 47.1804 7.51953C47.4817 7.71484 47.5821 8.10547 47.3812 8.30078C47.1804 8.78906 46.7787 9.08203 46.2766 9.17969C44.8707 9.57031 42.6614 8.39844 40.4521 7.03125C39.95 6.83594 39.6487 6.83594 39.4478 6.93359C38.3432 7.42188 37.339 9.96094 37.0377 11.4258C36.9373 11.6211 36.7364 11.8164 36.4352 11.8164Z" fill="#585858"/>
<path fill-rule="evenodd" clip-rule="evenodd" d="M36.4352 15.5273C36.3347 15.5273 36.1339 15.4297 36.0335 15.4297L32.3178 12.3047C32.117 12.1094 32.0166 11.7188 32.2174 11.5234L33.2216 10.4492C33.6233 9.96094 34.1254 9.76562 34.728 9.76562C35.2301 9.76562 35.7322 9.86328 36.0335 10.1562L37.6402 11.4258C38.4436 12.1094 38.544 13.3789 37.8411 14.2578L36.9373 15.332C36.8369 15.4297 36.636 15.5273 36.5356 15.5273H36.4352Z" fill="#454545"/>
<path fill-rule="evenodd" clip-rule="evenodd" d="M37.8411 42.1875C37.0377 42.1875 36.2343 41.8945 35.6318 41.4062L6.10749 17.0898C4.60115 15.918 4.4003 13.7695 5.60537 12.3047L15.246 1.26953C15.9489 0.488281 16.9531 0 17.9574 0C18.7608 0 19.5641 0.292969 20.1667 0.78125L49.7914 25.0977C51.1973 26.2695 51.3982 28.418 50.1931 29.8828L40.5525 41.0156C39.8495 41.6992 38.9457 42.1875 37.8411 42.1875Z" fill="#333333"/>
<path fill-rule="evenodd" clip-rule="evenodd" d="M18.3591 8.98438C18.1582 8.98438 17.9574 8.98438 17.7565 8.78906L15.5472 6.93359C15.1455 6.64062 15.0451 6.05469 15.3464 5.66406L17.154 3.61328C17.3548 3.41797 17.6561 3.22266 17.857 3.22266C18.1582 3.22266 18.3591 3.32031 18.4595 3.51562L20.7692 5.37109C20.9701 5.56641 21.0705 5.76172 21.0705 5.95703C21.1709 6.25 21.0705 6.44531 20.8696 6.64062L19.062 8.69141C18.9616 8.88672 18.6603 8.98438 18.3591 8.98438ZM22.7777 12.6953C22.5768 12.6953 22.376 12.5977 22.1751 12.4023L19.8654 10.5469C19.765 10.3516 19.5641 10.1562 19.5641 9.96094C19.5641 9.66797 19.6646 9.47266 19.765 9.27734L21.5726 7.22656C21.7734 7.03125 22.0747 6.83594 22.2756 6.83594C22.4764 6.83594 22.7777 6.93359 22.8781 7.12891L25.1878 8.98438C25.3887 9.17969 25.4891 9.375 25.4891 9.57031C25.5895 9.86328 25.4891 10.0586 25.2882 10.2539L23.4806 12.3047C23.3802 12.5 23.0789 12.6953 22.7777 12.6953ZM27.1963 16.3086C26.9954 16.3086 26.7946 16.2109 26.5937 16.0156L24.284 14.1602C24.0832 13.9648 23.9827 13.7695 23.9827 13.5742C23.9827 13.2812 24.0832 13.0859 24.1836 12.8906L25.9912 10.8398C26.192 10.6445 26.3929 10.5469 26.6942 10.5469C26.895 10.5469 27.0958 10.5469 27.2967 10.7422L29.6064 12.5977C30.0081 12.8906 30.0081 13.4766 29.7068 13.8672L27.8992 15.918C27.6984 16.1133 27.4975 16.3086 27.1963 16.3086ZM31.6149 19.9219C31.414 19.9219 31.2132 19.8242 31.0123 19.6289L28.7026 17.7734C28.5018 17.6758 28.4013 17.3828 28.4013 17.1875C28.4013 16.8945 28.5018 16.6992 28.6022 16.5039L30.4098 14.4531C30.6106 14.2578 30.8115 14.1602 31.1128 14.1602C31.3136 14.1602 31.5145 14.1602 31.7153 14.3555L34.025 16.2109C34.4267 16.5039 34.4267 17.0898 34.1254 17.4805L32.3178 19.5312C32.117 19.7266 31.9161 19.9219 31.6149 19.9219ZM36.0335 23.5352C35.8326 23.5352 35.6318 23.4375 35.4309 23.3398L33.1212 21.3867C32.7195 21.0938 32.7195 20.5078 33.0208 20.1172L34.8284 18.0664C35.0292 17.8711 35.2301 17.7734 35.5314 17.7734C35.7322 17.7734 35.9331 17.7734 36.1339 17.9688L38.4436 19.8242C38.8453 20.1172 38.8453 20.7031 38.544 21.0938L36.7364 23.1445C36.5356 23.4375 36.3347 23.5352 36.0335 23.5352ZM14.8443 13.0859C14.6434 13.0859 14.4426 12.9883 14.2417 12.8906L11.932 11.0352C11.6307 10.6445 11.5303 10.0586 11.8316 9.76562L13.6392 7.61719C13.84 7.42188 14.1413 7.32422 14.3422 7.32422C14.543 7.32422 14.8443 7.42188 14.9447 7.51953L17.2544 9.47266C17.6561 9.76562 17.7565 10.3516 17.3548 10.6445L15.5472 12.793C15.4468 12.9883 15.1455 13.0859 14.8443 13.0859ZM19.2629 16.6992C19.062 16.6992 18.8612 16.6016 18.6603 16.5039L16.3506 14.6484C16.1498 14.4531 16.0493 14.2578 16.0493 13.9648C16.0493 13.7695 16.1498 13.4766 16.2502 13.3789L18.0578 11.2305C18.2586 11.0352 18.4595 10.9375 18.7608 10.9375C18.9616 10.9375 19.1624 11.0352 19.3633 11.1328L21.673 13.0859C21.8739 13.1836 21.9743 13.3789 21.9743 13.6719C21.9743 13.8672 21.9743 14.1602 21.7734 14.3555L19.9658 16.4062C19.765 16.6016 19.5641 16.6992 19.2629 16.6992ZM23.6815 20.3125C23.4806 20.3125 23.2798 20.2148 23.0789 20.1172L20.7692 18.2617C20.5684 18.0664 20.4679 17.8711 20.4679 17.5781C20.4679 17.3828 20.5684 17.1875 20.6688 16.9922L22.4764 14.8438C22.6772 14.6484 22.8781 14.5508 23.1794 14.5508C23.3802 14.5508 23.5811 14.6484 23.7819 14.7461L26.0916 16.6992C26.2925 16.7969 26.3929 16.9922 26.3929 17.2852C26.3929 17.4805 26.3929 17.7734 26.192 17.9688L24.3844 20.0195C24.1836 20.2148 23.9827 20.3125 23.6815 20.3125ZM28.1001 23.9258C27.8992 23.9258 27.6984 23.8281 27.4975 23.7305L25.1878 21.875C24.7861 21.4844 24.7861 20.9961 25.0874 20.6055L26.895 18.457C27.0958 18.2617 27.2967 18.1641 27.598 18.1641C27.7988 18.1641 27.9997 18.2617 28.2005 18.3594L30.5102 20.3125C30.7111 20.4102 30.8115 20.7031 30.8115 20.8984C30.8115 21.0938 30.7111 21.3867 30.6106 21.582L28.803 23.6328C28.6022 23.8281 28.4013 23.9258 28.1001 23.9258Z" fill="#E6E6E6"/>
<path fill-rule="evenodd" clip-rule="evenodd" d="M24.7861 27.9297C24.4849 27.9297 24.284 27.832 24.0832 27.6367L12.9362 18.5547C12.5345 18.1641 12.4341 17.4805 12.8358 17.0898L14.3422 15.332C14.543 15.0391 14.9447 14.9414 15.246 14.9414C15.4468 14.9414 15.7481 15.0391 15.8485 15.1367C15.9489 15.1367 15.9489 15.1367 15.9489 15.2344L26.9954 24.2188C27.1963 24.4141 27.3971 24.707 27.3971 25C27.3971 25.293 27.2967 25.5859 27.0958 25.7812L25.5895 27.5391C25.3887 27.7344 25.0874 27.9297 24.7861 27.9297Z" fill="#E63A45"/>
<path fill-rule="evenodd" clip-rule="evenodd" d="M32.5187 27.5391C32.3178 27.5391 32.117 27.5391 31.9161 27.3438L29.6064 25.4883C29.2047 25.0977 29.2047 24.6094 29.506 24.2188L31.3136 22.168C31.5144 21.875 31.7153 21.7773 32.0166 21.7773C32.2174 21.7773 32.4183 21.875 32.6191 21.9727L34.9288 23.9258C35.3305 24.2188 35.3305 24.8047 35.0292 25.1953L33.2216 27.2461C33.0208 27.4414 32.8199 27.5391 32.5187 27.5391ZM29.1043 31.543C28.803 31.543 28.6022 31.4453 28.5018 31.3477L26.192 29.3945C25.7904 29.1016 25.6899 28.5156 26.0916 28.125L27.8992 26.0742C27.9997 25.8789 28.3009 25.7812 28.6022 25.7812C28.803 25.7812 29.0039 25.8789 29.2047 25.9766L31.414 27.832C31.8157 28.2227 31.9161 28.8086 31.6149 29.1016L29.8073 31.25C29.6064 31.4453 29.3051 31.543 29.1043 31.543ZM36.8369 31.1523C36.636 31.1523 36.4352 31.0547 36.3347 30.957L34.025 29.1016C33.6233 28.7109 33.5229 28.2227 33.9246 27.832L35.6318 25.6836C35.8326 25.4883 36.1339 25.3906 36.4352 25.3906C36.636 25.3906 36.8369 25.4883 36.9373 25.5859L39.247 27.5391C39.6487 27.832 39.7491 28.418 39.3474 28.8086L37.5398 30.8594C37.4394 31.0547 37.1381 31.1523 36.8369 31.1523ZM33.4225 35.1562C33.2216 35.1562 33.0208 35.0586 32.8199 34.9609L30.5102 33.0078C30.3094 32.9102 30.209 32.6172 30.209 32.4219C30.209 32.2266 30.3094 31.9336 30.4098 31.7383L32.2174 29.6875C32.4183 29.4922 32.6191 29.3945 32.9204 29.3945C33.1212 29.3945 33.3221 29.4922 33.5229 29.5898L35.8326 31.4453C36.2343 31.8359 36.2343 32.3242 35.9331 32.7148L34.1254 34.7656C33.9246 35.0586 33.7237 35.1562 33.4225 35.1562Z" fill="#E6E6E6"/>
<path fill-rule="evenodd" clip-rule="evenodd" d="M44.9711 30.6641C44.6698 30.6641 44.469 30.6641 44.2681 30.4688L37.5398 25C37.339 24.8047 37.2385 24.5117 37.2385 24.2188C37.1381 23.9258 37.2385 23.6328 37.4394 23.4375L38.9457 21.7773C39.1466 21.4844 39.4478 21.3867 39.7491 21.3867C40.0504 21.3867 40.2512 21.4844 40.4521 21.582L47.1804 27.1484C47.3812 27.3438 47.5821 27.5391 47.5821 27.832C47.5821 28.125 47.4817 28.418 47.2808 28.6133L45.7745 30.3711C45.5736 30.5664 45.2724 30.6641 44.9711 30.6641Z" fill="#FEE500"/>
<path fill-rule="evenodd" clip-rule="evenodd" d="M11.4299 17.0898C11.2291 17.0898 11.0282 16.9922 10.8274 16.7969L8.51764 14.9414C8.11594 14.6484 8.11594 14.0625 8.41721 13.6719L10.2248 11.6211C10.4257 11.4258 10.6265 11.3281 10.9278 11.3281C11.1286 11.3281 11.3295 11.3281 11.5303 11.5234L13.84 13.3789C14.0409 13.5742 14.1413 13.7695 14.1413 13.9648C14.1413 14.2578 14.1413 14.4531 13.9405 14.6484L12.1329 16.6992C11.932 16.8945 11.7312 17.0898 11.4299 17.0898Z" fill="#E6E6E6"/>
<path fill-rule="evenodd" clip-rule="evenodd" d="M37.9415 38.8672C37.6402 38.8672 37.4394 38.7695 37.2385 38.5742L35.0292 36.8164C34.5271 36.4258 34.4267 35.7422 34.8284 35.2539L40.0504 29.3945C40.2512 29.1016 40.5525 29.0039 40.8538 29.0039C41.155 29.0039 41.3559 29.1016 41.5567 29.2969L43.766 31.0547C44.1677 31.4453 44.2681 32.1289 43.8665 32.5195L38.7449 38.4766C38.544 38.6719 38.2428 38.8672 37.9415 38.8672Z" fill="#E63A45"/>
<path fill-rule="evenodd" clip-rule="evenodd" d="M8.01552 46.9727C7.71425 46.9727 7.41298 46.7773 7.41298 46.4844C7.41298 46.4844 6.81045 43.8477 1.88973 38.5742C1.78931 38.5742 1.78931 38.5742 1.78931 38.4766C0.684659 36.5234 0.684659 34.4727 1.99016 32.7148C3.39607 30.7617 6.20791 29.5898 8.71848 29.9805C10.8274 30.3711 12.3337 31.7383 13.0367 33.8867V33.9844C13.5388 41.1133 15.0451 43.3594 15.0451 43.3594C15.246 43.6523 15.1455 43.9453 14.8443 44.1406C14.6434 44.3359 8.31679 46.875 8.11594 46.9727H8.01552Z" fill="#B3B3B3"/>
<path fill-rule="evenodd" clip-rule="evenodd" d="M9.01975 40.5273C8.8189 40.5273 8.61806 40.4297 8.51764 40.2344L7.11172 37.0117C7.01129 36.7188 7.11172 36.4258 7.41298 36.2305C7.71425 36.1328 8.11594 36.2305 8.21637 36.5234L9.62229 39.7461C9.72271 40.0391 9.62229 40.4297 9.32102 40.5273H9.01975ZM4.70157 31.3477C3.99861 30.8594 1.2872 28.418 1.48804 26.3672C1.48804 25.6836 1.88973 25.0977 2.49227 24.707C3.79777 23.9258 6.30833 22.4609 6.50918 21.3867C6.6096 21.1914 6.50918 21.0938 6.40876 20.8984C6.30833 20.7031 6.30833 20.3125 6.6096 20.1172C6.91087 19.9219 7.31256 20.0195 7.41298 20.3125C7.71425 20.7031 7.81468 21.1914 7.71425 21.6797C7.41298 23.0469 5.40453 24.4141 3.19523 25.6836C2.69311 25.9766 2.69311 26.2695 2.59269 26.4648C2.59269 27.6367 4.4003 29.5898 5.60537 30.5664V30.6641H5.7058V30.7617L6.71003 32.9102C6.81045 33.2031 6.6096 33.5938 6.30833 33.6914C6.30833 33.6914 6.20791 33.7891 6.10749 33.7891C5.90664 33.7891 5.60537 33.5938 5.50495 33.3984L4.70157 31.3477Z" fill="#E6E6E6"/>
<path fill-rule="evenodd" clip-rule="evenodd" d="M7.51341 37.4023C6.6096 37.4023 5.90664 36.4258 5.50495 35.5469C5.30411 34.9609 5.10326 34.375 5.20368 33.8867C5.20368 33.0078 5.60538 32.7148 5.90664 32.6172C6.00707 32.6172 6.10749 32.5195 6.30833 32.5195C7.11172 32.5195 7.9151 33.5938 8.31679 34.375C8.91933 35.8398 8.71848 37.0117 7.9151 37.3047C7.81468 37.4023 7.61383 37.4023 7.51341 37.4023Z" fill="#E63A45"/>
</svg>

<svg xmlns="http://www.w3.org/2000/svg" width="51" height="50" fill="none" viewBox="0 0 51 50"><path fill="#e6e6e6" fill-rule="evenodd" d="M4.702 41.992c0-.097-.1-.097-.1-.195-.101-.293 0-.684.3-.781l7.833-3.125c.302-.196.603 0 .804.293v.195c1.406.586 2.41 1.758 3.013 3.125.702 1.465.702 3.125 0 4.687-.603 1.465-1.808 2.637-3.415 3.32a6.6 6.6 0 0 1-2.41.489c-2.41 0-4.82-1.465-5.825-3.809-.602-1.367-.602-2.832-.2-4.199" clip-rule="evenodd"/><path fill="#585858" fill-rule="evenodd" d="M36.435 11.816h-.1a.74.74 0 0 1-.502-.683c.1-.488 1.104-4.395 3.213-5.274.603-.293 1.306-.195 2.009.196 1.305.78 3.916 2.246 4.92 1.953.201 0 .302-.098.402-.293a.8.8 0 0 1 .803-.195c.302.195.402.585.201.78-.2.49-.602.782-1.104.88-1.406.39-3.616-.782-5.825-2.149-.502-.195-.803-.195-1.004-.097-1.105.488-2.109 3.027-2.41 4.492-.1.195-.302.39-.603.39" clip-rule="evenodd"/><path fill="#454545" fill-rule="evenodd" d="M36.435 15.527c-.1 0-.301-.097-.402-.097l-3.715-3.125c-.201-.196-.301-.586-.1-.782l1.004-1.074c.401-.488.903-.683 1.506-.683.502 0 1.004.097 1.305.39l1.607 1.27c.804.683.904 1.953.201 2.832l-.904 1.074c-.1.098-.301.195-.401.195z" clip-rule="evenodd"/><path fill="#333" fill-rule="evenodd" d="M37.841 42.188a3.57 3.57 0 0 1-2.21-.782L6.108 17.09c-1.506-1.172-1.707-3.32-.502-4.785L15.246 1.27C15.949.488 16.953 0 17.957 0a3.57 3.57 0 0 1 2.21.781L49.79 25.098c1.406 1.172 1.607 3.32.402 4.785l-9.64 11.133c-.703.683-1.607 1.172-2.712 1.172" clip-rule="evenodd"/><path fill="#e6e6e6" fill-rule="evenodd" d="M18.36 8.984c-.202 0-.403 0-.604-.195l-2.209-1.855c-.402-.293-.502-.88-.2-1.27l1.807-2.05c.2-.196.502-.391.703-.391q.452 0 .602.293l2.31 1.855q.302.292.302.586c.1.293 0 .488-.201.684l-1.808 2.05c-.1.196-.402.293-.703.293m4.418 3.711q-.302 0-.603-.293l-2.31-1.855c-.1-.195-.3-.39-.3-.586 0-.293.1-.488.2-.684l1.808-2.05c.2-.196.502-.391.703-.391s.502.098.602.293l2.31 1.855q.3.294.301.586c.1.293 0 .489-.2.684l-1.808 2.05c-.1.196-.402.391-.703.391m4.418 3.614q-.3 0-.602-.293l-2.31-1.856q-.3-.292-.301-.586c0-.293.1-.488.2-.683l1.808-2.051a.92.92 0 0 1 .703-.293c.201 0 .402 0 .603.195l2.31 1.856c.401.293.401.879.1 1.27l-1.808 2.05c-.2.195-.402.39-.703.39m4.419 3.613q-.301 0-.603-.293l-2.31-1.856c-.2-.097-.3-.39-.3-.585 0-.293.1-.489.2-.684l1.808-2.05a.92.92 0 0 1 .703-.294c.2 0 .402 0 .602.195l2.31 1.856c.402.293.402.879.1 1.27l-1.807 2.05c-.201.196-.402.39-.703.39m4.418 3.613c-.2 0-.401-.098-.602-.195l-2.31-1.953c-.402-.293-.402-.88-.1-1.27l1.807-2.05a.92.92 0 0 1 .703-.294c.201 0 .402 0 .603.196l2.31 1.855c.401.293.401.88.1 1.27l-1.808 2.05c-.2.294-.401.391-.703.391m-21.189-10.45c-.2 0-.401-.097-.602-.194l-2.31-1.856c-.301-.39-.402-.976-.1-1.27l1.807-2.148a1.1 1.1 0 0 1 .703-.293c.201 0 .502.098.603.196l2.31 1.953c.401.293.502.879.1 1.172l-1.808 2.148c-.1.195-.402.293-.703.293m4.419 3.614c-.201 0-.402-.097-.603-.195l-2.31-1.856c-.2-.195-.3-.39-.3-.683 0-.195.1-.488.2-.586l1.808-2.149a.92.92 0 0 1 .703-.293c.2 0 .401.098.602.196l2.31 1.953q.3.147.301.586c0 .195 0 .488-.2.683l-1.808 2.051a.92.92 0 0 1-.703.293m4.418 3.613c-.2 0-.401-.097-.602-.195l-2.31-1.855c-.2-.196-.301-.39-.301-.684 0-.195.1-.39.2-.586l1.808-2.148a.92.92 0 0 1 .703-.293c.201 0 .402.097.603.195l2.31 1.953q.3.147.3.586c0 .195 0 .488-.2.684l-1.808 2.05a.92.92 0 0 1-.703.294m4.42 3.614c-.202 0-.403-.098-.604-.195l-2.31-1.856c-.4-.39-.4-.879-.1-1.27l1.808-2.148a.92.92 0 0 1 .703-.293c.2 0 .402.098.603.195l2.31 1.953c.2.098.3.391.3.586 0 .196-.1.489-.2.684l-1.808 2.05a.92.92 0 0 1-.703.294" clip-rule="evenodd"/><path fill="#e63a45" fill-rule="evenodd" d="M24.786 27.93a.92.92 0 0 1-.703-.293l-11.147-9.082c-.402-.39-.502-1.075-.1-1.465l1.506-1.758c.201-.293.603-.39.904-.39.2 0 .502.097.602.195.1 0 .1 0 .1.097l11.047 8.985c.201.195.402.488.402.781s-.1.586-.301.781L25.59 27.54c-.201.195-.503.39-.804.39" clip-rule="evenodd"/><path fill="#e6e6e6" fill-rule="evenodd" d="M32.519 27.54c-.201 0-.402 0-.603-.196l-2.31-1.856c-.401-.39-.401-.879-.1-1.27l1.808-2.05c.2-.293.401-.39.703-.39.2 0 .401.097.602.195l2.31 1.953c.401.293.401.879.1 1.27l-1.807 2.05a.92.92 0 0 1-.703.293m-3.415 4.003c-.301 0-.502-.098-.602-.195l-2.31-1.953c-.402-.293-.502-.88-.1-1.27l1.807-2.05c.1-.196.402-.294.703-.294.201 0 .402.098.603.196l2.209 1.855c.402.39.502.977.2 1.27l-1.807 2.148c-.2.195-.502.293-.703.293m7.733-.39a.78.78 0 0 1-.502-.196l-2.31-1.855c-.402-.391-.502-.88-.1-1.27l1.707-2.148c.2-.196.502-.293.803-.293.201 0 .402.097.502.195l2.31 1.953c.402.293.502.879.1 1.27l-1.807 2.05c-.1.196-.402.293-.703.293m-3.415 4.003c-.2 0-.401-.097-.602-.195l-2.31-1.953c-.2-.098-.301-.39-.301-.586s.1-.488.2-.684l1.808-2.05a.92.92 0 0 1 .703-.293c.201 0 .402.097.603.195l2.31 1.855c.401.39.401.88.1 1.27l-1.808 2.05c-.2.294-.401.391-.703.391" clip-rule="evenodd"/><path fill="#fee500" fill-rule="evenodd" d="M44.971 30.664c-.301 0-.502 0-.703-.195L37.54 25c-.201-.195-.301-.488-.301-.781-.1-.293 0-.586.2-.782l1.507-1.66c.2-.293.502-.39.803-.39s.502.097.703.195l6.728 5.566c.201.196.402.391.402.684s-.1.586-.301.781l-1.506 1.758c-.201.195-.503.293-.804.293" clip-rule="evenodd"/><path fill="#e6e6e6" fill-rule="evenodd" d="M11.43 17.09q-.3 0-.603-.293l-2.31-1.856c-.401-.293-.401-.879-.1-1.27l1.808-2.05a.92.92 0 0 1 .703-.293c.2 0 .401 0 .602.195l2.31 1.856q.3.292.301.586c0 .293 0 .488-.2.683L12.133 16.7c-.201.195-.402.39-.703.39" clip-rule="evenodd"/><path fill="#e63a45" fill-rule="evenodd" d="M37.942 38.867a.92.92 0 0 1-.703-.293l-2.21-1.758c-.502-.39-.602-1.074-.2-1.562l5.221-5.86c.201-.292.503-.39.804-.39s.502.098.703.293l2.209 1.758c.402.39.502 1.074.1 1.465l-5.121 5.957c-.201.195-.502.39-.803.39" clip-rule="evenodd"/><path fill="#b3b3b3" fill-rule="evenodd" d="M8.016 46.973c-.302 0-.603-.196-.603-.489 0 0-.603-2.636-5.523-7.91-.1 0-.1 0-.1-.097-1.105-1.954-1.105-4.004.2-5.762 1.406-1.953 4.218-3.125 6.728-2.735 2.11.391 3.616 1.758 4.319 3.907v.097c.502 7.13 2.008 9.375 2.008 9.375.201.293.1.586-.2.782-.202.195-6.528 2.734-6.73 2.832z" clip-rule="evenodd"/><path fill="#e6e6e6" fill-rule="evenodd" d="M9.02 40.527a.56.56 0 0 1-.502-.293l-1.406-3.222c-.1-.293 0-.586.301-.782.301-.097.703 0 .803.293l1.406 3.223c.1.293 0 .684-.301.781zm-4.318-9.18c-.703-.488-3.415-2.929-3.214-4.98 0-.683.402-1.27 1.004-1.66 1.306-.781 3.816-2.246 4.017-3.32.1-.196 0-.293-.1-.489-.1-.195-.1-.585.2-.78.302-.196.704-.098.804.195.301.39.402.878.301 1.367-.301 1.367-2.31 2.734-4.519 4.004-.502.293-.502.585-.602.78 0 1.173 1.807 3.126 3.012 4.102v.098h.1v.098L6.71 32.91c.1.293-.1.684-.402.781 0 0-.1.098-.2.098-.201 0-.503-.195-.603-.39z" clip-rule="evenodd"/><path fill="#e63a45" fill-rule="evenodd" d="M7.513 37.402c-.903 0-1.606-.976-2.008-1.855-.2-.586-.402-1.172-.301-1.66 0-.88.401-1.172.703-1.27.1 0 .2-.097.401-.097.804 0 1.607 1.074 2.009 1.855.602 1.465.401 2.637-.402 2.93-.1.097-.301.097-.402.097" clip-rule="evenodd"/></svg>
